X: 27420
T: Moll Roe
R: slip jig
M: 9/8
K: Gmajor
|:DGG GAG FGA|BGG GAB ~c3|DGG GAG FGA|BAB cAF G2 E:|
|:DED cAG FED|DED cAB ~c3|DED cAG FGA|BAB cAF G2 E:|

